X:668
T:Ashplant, The
S:Cyberspace
Z:Nigel Gatherer
L:1/8
M:4/4
K:F#dor
c3  B cBAB | cF F2 EFAB | c2 cB cefe | afec B2 AB :|
c2 ac bcac | c2 fe cBAB | c2 ac bcfe | afec B2 AB  |
c2 ac bcac | c2 fe cBAB | cefe  a3 b | afec B2 AB |]
<end>
<start>
